X:85
T: Killoran's
T: Polca Mhic Giolla Luairinn (1)
S: B.Breathnach:"Ceol Rince na hEireann" III/67
Z: B.Black
L: 1/8
M: 2/4
Q: 275
R: polka
K: G
G/F/G/A/ BG|E>G ED/E/|D/E/G/A/ Bd|BA A2|
GG/A/ BG|E>G ED|BA/B/ D/E/F/G/|AG/F/ G2 :|
dB G>A|Bg ed/c/|dB G>A|BA AB/c/|
d/e/d/B/ G>A|Bg ed|BA/B/ D/E/F/G/|AG/F/ G2 :|
